src/Assets/icon/icon_twitter.svg

<svg fill="none" height="25" viewBox="0 0 25 25" width="25" xmlns="http://www.w3.org/2000/svg"><path d="m1.87903 2.97583h6.21092l5.74095 7.63917 7.146-7.81422 1.6979.02918-7.9974 8.88404 8.2016 10.9117h-6.2084l-5.4186-7.1189-6.6194 7.294h-1.67085l7.46835-8.3346zm5.62527 1.12813h-3.28018l13.12318 17.36444h3.2211z" fill="#2977ec"/></svg>

<svg width="25" height="25" viewBox="0 0 25 25" fill="none" xmlns="http://www.w3.org/2000/svg">
<path d="M1.87903 2.97583H8.08995L13.8309 10.615L20.9769 2.80078L22.6748 2.82996L14.6774 11.714L22.879 22.6257H16.6706L11.252 15.5068L4.6326 22.8008H2.96175L10.4301 14.4662L1.87903 2.97583ZM7.5043 4.10396H4.22412L17.3473 21.4684H20.5684L7.5043 4.10396Z" fill="#2977EC"/>
</svg>
